X: 5
T: The Blarney Pilgrim
R: jig
M: 6/8
L: 1/8
K: Dmix
DED DEG|A2G ABc|BAG AGE|GEA GED|
DED DEG|A2G ABc|BAG AGE|GED D3:|
|:ded dBG|AGA BGE|ded dBG|AGA B2e/2f/2|
g2e dBG|AGA Bcd|cBA BAG|AGE D3:|
|:A2D B2D|A2D ABc|BAG AGE|GEA GED|
A2D B2D|A2D ABc|BAG AGE|GED D3:|


Tune 5	Setting 30071

